X: 2
T: The Hare In The Corn
R: jig
M: 6/8
L: 1/8
K: Dmaj
F2A AFA | B/c/dB AFE | ~F3 EDE | F2D DED | F2A AFA | B/c/dB AFA | Bcd ecA | ded d3 :: ~f3 fed | g2e ede | ~f3 fed | a^ga ba=g | ~f3 fed | ~g2e edB | AB/c/d ecA | ded d3 :|


Tune 1736	Setting 15169

